svgs/regular/paintbrush.svg

<svg xmlns="http://www.w3.org/2000/svg" viewBox="0 0 576 512"><!--! Font Awesome Pro 6.2.0 by @fontawesome - https://fontawesome.com License - https://fontawesome.com/license (Commercial License) Copyright 2022 Fonticons, Inc. --><path d="M384 341.3C364.9 366.8 335.4 382.4 303.7 383.9C303.9 386.6 304 389.3 304 392C304 458.3 250.3 512 184 512H32C14.33 512 0 497.7 0 480C0 462.3 14.33 448 32 448H38.01C56.09 448 68.14 428.2 65.39 410.4C64.48 404.4 63.1 398.2 63.1 392C63.1 325.7 117.7 272 183.1 272C186.7 272 189.4 272.1 192.1 272.3C193.6 240.6 209.2 211.1 234.7 192L473.5 12.81C498.1-6.307 534.6-3.779 557.2 18.74C579.7 41.25 582.2 76.91 563.1 102.4L384 341.3zM277.1 219.5L356.5 297.1L524.7 73.6C529.5 67.23 528.9 58.31 523.2 52.69C517.6 47.06 508.7 46.42 502.3 51.2L277.1 219.5zM199.1 321.6C194.2 320.5 189.2 320 184 320C144.2 320 112 352.2 112 392C112 395.8 112.3 399.5 112.8 403.1C116.1 424.5 110.7 446.2 99.08 463.1L98.42 464H184C223.8 464 256 431.8 256 392C256 386.8 255.5 381.8 254.4 376.9L199.1 321.6z"/></svg>

<svg xmlns="http://www.w3.org/2000/svg" viewBox="0 0 576 512"><!--! Font Awesome Pro 6.3.0 by @fontawesome - https://fontawesome.com License - https://fontawesome.com/license (Commercial License) Copyright 2023 Fonticons, Inc. --><path d="M278 219.5L356.5 298 524.7 73.6c4.8-6.4 4.1-15.3-1.5-20.9s-14.5-6.3-20.9-1.5L278 219.5zM199.1 321.6c-4.9-1-9.9-1.6-15.1-1.6c-39.8 0-72 32.2-72 72c0 3.8 .3 7.5 .8 11.1c3.3 21.4-2.2 43.1-13.8 60l-.7 .9H184c39.8 0 72-32.2 72-72c0-5.2-.5-10.2-1.6-15.1l-55.4-55.4zM384 341.3c-19.1 25.5-48.6 41.1-80.3 42.6c.2 2.7 .3 5.4 .3 8.1c0 66.3-53.7 120-120 120H32c-17.7 0-32-14.3-32-32s14.3-32 32-32h6c18.1 0 30.1-19.8 27.4-37.6c-.9-6-1.4-12.1-1.4-18.4c0-66.3 53.7-120 120-120c2.7 0 5.4 .1 8.1 .3c1.5-31.7 17-61.1 42.5-80.3L473.5 12.8C499-6.3 534.6-3.8 557.2 18.7s25.1 58.2 6 83.7L384 341.3z"/></svg>
